<?xml version="1.0" encoding="UTF-8"?>
<map version="1.2" tiledversion="1.3.4" orientation="orthogonal" renderorder="right-down" width="32" height="60" tilewidth="8" tileheight="8" infinite="0" nextlayerid="2" nextobjectid="1">
 <tileset firstgid="1" name="CHR0-PAL0" tilewidth="8" tileheight="8" tilecount="256" columns="16">
  <image source="../chr/0-pal0.png" width="128" height="128"/>
 </tileset>
 <tileset firstgid="257" name="CHR0-PAL1" tilewidth="8" tileheight="8" tilecount="256" columns="16">
  <image source="../chr/0-pal1.png" width="128" height="128"/>
 </tileset>
 <tileset firstgid="513" name="CHR0-PAL2" tilewidth="8" tileheight="8" tilecount="256" columns="16">
  <image source="../chr/0-pal2.png" width="128" height="128"/>
 </tileset>
 <tileset firstgid="769" name="CHR0-PAL3" tilewidth="8" tileheight="8" tilecount="256" columns="16">
  <image source="../chr/0-pal3.png" width="128" height="128"/>
 </tileset>
 <layer id="1" name="Tile Layer 1" width="32" height="60">
  <data encoding="csv">
1013,1014,769,769,1013,1014,769,769,769,769,769,769,769,769,769,769,769,769,769,769,769,769,769,769,769,769,769,769,769,769,769,769,
1015,1016,1013,1014,1015,1016,1013,1014,769,769,769,769,769,769,769,769,769,769,769,769,769,769,769,769,769,769,769,769,769,769,769,769,
769,769,1015,1016,769,769,1015,1016,769,769,769,769,769,769,769,769,769,769,769,769,769,769,769,769,769,769,769,769,769,769,769,769,
769,769,769,769,769,769,769,769,769,769,769,769,769,769,769,769,769,769,769,769,769,769,769,769,769,769,769,769,769,769,769,769,
769,769,769,769,769,769,769,769,769,769,769,769,769,769,769,769,769,769,769,769,769,769,769,769,769,769,769,769,769,769,769,769,
769,769,769,769,769,769,769,769,769,769,769,769,769,769,769,769,769,769,769,769,769,769,769,769,769,769,769,769,769,769,769,769,
769,769,769,769,769,769,769,769,769,769,769,769,769,769,769,769,769,769,769,769,769,769,769,769,769,769,769,769,769,769,769,769,
769,769,769,769,769,769,769,769,769,769,769,769,769,769,769,769,769,769,769,769,769,769,769,769,769,769,769,769,769,769,769,769,
769,769,769,769,769,769,769,769,769,769,769,769,769,769,769,769,769,769,769,769,769,769,769,769,769,769,769,769,769,769,769,769,
769,769,769,769,769,769,769,769,769,769,769,769,769,769,769,769,769,769,769,769,769,769,769,769,769,769,769,769,769,769,769,769,
769,769,769,769,769,769,769,769,769,769,769,769,769,769,769,769,769,769,769,769,769,769,769,769,769,769,769,769,769,769,769,769,
769,769,769,769,769,769,769,769,769,769,769,769,769,769,769,769,769,769,769,769,769,769,769,769,769,769,769,769,769,769,769,769,
769,769,769,769,769,769,769,769,769,769,769,769,769,769,769,769,769,769,769,769,769,769,769,769,769,769,769,769,769,769,769,769,
769,769,769,769,769,769,769,769,1013,1014,1014,1014,1014,769,769,769,769,769,769,769,769,769,769,769,769,769,769,769,769,769,769,769,
769,769,769,769,769,1013,1014,1014,1014,1016,1016,1016,1016,1014,1014,769,769,769,769,769,769,769,769,769,769,769,769,769,769,769,769,769,
769,769,769,769,1013,1014,1016,1016,1016,769,769,769,1015,1016,1016,1014,1014,1014,769,769,769,769,769,769,769,769,769,769,769,769,769,769,
769,769,769,1013,1014,1016,769,769,769,769,769,769,769,769,1015,1016,1016,1016,1014,1014,769,769,769,769,769,769,769,769,769,769,769,769,
769,769,1013,1014,1016,769,769,769,769,769,769,769,769,769,769,769,769,1015,1016,1016,1014,1014,769,769,769,769,769,769,769,769,769,769,
769,1013,1014,1016,769,769,769,769,769,769,769,769,769,769,769,769,769,769,769,1015,1016,1016,1014,769,769,769,769,769,769,769,769,769,
769,1013,1014,769,769,769,769,769,769,769,769,769,769,769,769,769,769,769,769,769,769,1015,1016,1014,769,769,769,769,769,769,769,769,
1013,1014,1016,769,769,769,769,769,769,769,769,769,769,769,769,769,769,769,769,769,769,769,1015,1016,1014,769,769,769,769,769,769,769,
1013,1014,769,769,769,769,769,769,769,769,769,769,769,769,769,769,769,769,769,769,769,769,769,1015,1016,769,769,769,769,769,769,769,
1014,1016,769,769,769,769,769,769,769,769,769,769,769,769,769,769,769,769,769,769,769,769,769,1015,1016,1014,769,769,769,769,769,769,
1014,769,769,769,769,769,769,769,769,769,769,769,769,769,769,769,769,769,769,769,769,769,769,769,1015,1016,769,769,769,769,769,769,
1014,769,769,769,769,769,769,769,769,769,769,769,769,769,769,769,769,769,769,769,769,769,769,769,1015,1016,1014,769,769,769,769,769,
1014,769,769,769,769,769,769,769,769,769,769,769,769,769,769,769,769,769,769,769,769,769,769,769,769,1015,1016,769,769,769,769,769,
1016,769,769,769,769,769,769,769,769,769,769,769,769,769,769,769,769,769,769,769,769,769,769,769,769,1015,1016,1014,769,769,769,769,
769,769,769,769,769,769,769,769,769,769,769,769,769,769,769,769,769,769,769,769,769,769,769,769,769,769,1015,1016,769,769,769,769,
769,769,769,769,769,769,769,769,769,769,769,769,769,769,769,769,769,769,769,769,769,769,769,769,769,769,1015,1016,1014,769,769,769,
769,769,769,769,769,769,769,769,769,769,769,769,769,769,769,769,769,769,769,769,769,769,769,769,769,769,769,1015,1016,769,769,769,
769,769,769,769,769,769,769,769,769,769,769,769,769,769,769,769,769,769,769,769,769,769,769,769,769,769,769,1015,1016,769,769,769,
769,769,769,769,769,769,769,769,769,769,769,769,769,769,769,769,769,769,769,769,769,769,769,769,769,769,769,1015,1016,769,769,769,
769,769,769,769,769,769,769,769,769,769,769,769,769,769,769,769,769,769,769,769,769,769,769,769,769,769,769,1015,1016,769,769,769,
1014,769,769,769,769,769,769,769,769,769,769,769,769,769,769,769,769,769,769,769,769,769,769,769,769,769,769,1015,1016,1014,769,769,
1013,1014,1014,1014,1014,1014,1014,769,769,769,769,769,769,769,769,769,769,769,769,769,769,769,769,769,769,769,769,769,1015,1016,769,769,
1015,1013,1014,1016,1016,1016,1016,1014,1014,769,769,769,769,769,769,769,769,769,769,769,769,769,769,769,769,769,769,769,1015,1016,769,769,
1014,1015,1013,1014,769,769,1015,1016,1016,1014,769,769,769,769,769,769,769,769,769,769,769,769,769,769,769,769,769,769,1015,1016,769,769,
1014,769,1015,1013,1014,769,769,769,1015,1016,1014,769,769,769,769,769,769,769,769,769,769,769,769,769,769,769,769,769,1015,1016,769,769,
1014,769,769,1015,1013,1014,769,769,769,1015,1016,1014,769,769,769,769,769,769,769,769,769,769,769,769,769,769,769,769,1015,1016,769,769,
1014,769,769,769,1015,1013,1013,1013,1013,1013,1013,1014,1014,769,769,769,769,769,769,769,769,769,769,769,769,769,769,1013,1015,1016,769,769,
1014,769,769,769,769,1015,1015,1015,1015,1015,1015,1013,1013,1013,1013,1013,1013,1013,1013,1013,1013,1014,769,769,769,769,769,1015,1016,769,769,769,
1014,769,769,769,769,769,769,769,769,769,769,1015,1015,1015,1015,1015,1015,1015,1015,1015,1015,1016,769,769,769,769,769,1015,1016,769,769,769,
1014,769,769,769,769,769,769,769,769,769,769,769,1015,1016,1014,769,769,769,769,769,769,769,769,769,769,769,1013,1015,1016,769,769,769,
1013,1014,769,769,769,769,769,769,769,769,769,769,769,1015,1016,769,769,769,769,769,769,769,1013,1014,769,1013,1015,1016,769,769,769,769,
1013,1014,769,769,769,769,769,769,769,769,769,769,769,1015,1016,1014,769,769,769,769,769,1013,1014,1016,1014,1015,1016,769,769,769,769,769,
1013,1014,769,769,769,769,769,769,769,769,769,769,769,769,1015,1016,769,769,769,769,1013,1014,1016,1015,1013,1015,1016,769,769,769,769,769,
1013,1014,769,769,769,769,769,769,769,769,769,769,769,769,1015,1016,769,769,769,1013,1014,1014,769,1013,1015,1016,769,769,769,769,769,769,
1015,1013,1014,769,769,769,769,769,769,769,769,769,769,769,1015,1016,769,769,769,1013,1014,1016,1013,1015,1016,1016,1014,769,769,769,769,769,
769,1013,1014,769,769,769,769,769,769,769,769,769,769,769,1015,1016,769,769,769,1013,1013,1013,1015,1016,769,1015,1016,769,769,769,769,769,
769,1015,1013,1014,769,769,769,769,769,769,769,769,769,769,1015,1016,769,769,769,1015,1015,1015,1016,769,769,1015,1016,769,769,769,769,769,
769,769,1015,1013,1014,769,769,769,769,769,769,769,769,769,769,769,769,769,769,769,769,769,769,769,769,1015,1016,769,769,769,769,769,
769,769,769,1013,1014,769,769,769,769,769,769,769,769,769,769,769,769,769,769,769,769,769,769,769,769,1015,1016,1014,769,769,769,769,
769,769,769,1015,1013,1014,769,769,769,769,769,769,769,769,769,769,769,769,769,769,769,769,769,769,769,769,1015,1016,769,769,769,769,
769,769,769,769,1015,1013,1014,769,769,769,769,769,769,769,769,769,769,769,769,769,769,769,769,769,769,769,1015,1016,769,769,769,769,
769,769,769,769,769,1015,1013,1014,769,769,769,769,769,769,769,769,769,769,769,769,769,769,769,769,769,769,1015,1016,769,769,769,769,
769,769,769,769,769,769,1013,1014,769,769,769,769,769,769,769,769,769,769,769,769,769,769,769,769,769,769,1015,1016,769,769,769,769,
769,769,769,769,769,769,1015,1013,1014,769,769,769,769,769,769,769,769,769,769,769,769,769,769,769,769,1013,1015,1016,769,769,769,769,
769,769,769,769,769,769,769,1015,1013,1014,769,769,769,769,769,769,769,769,769,769,769,769,769,769,769,1015,1016,769,769,769,769,769,
1013,1014,1013,1014,1013,1014,1013,1014,1015,1013,1013,1014,1013,1014,1013,1014,769,769,769,769,769,769,769,769,769,1015,1016,769,769,769,769,769,
1015,1016,1015,1016,1015,1016,1015,1016,1015,1015,1015,1013,1013,1014,1015,1016,769,769,769,769,769,769,769,769,1013,1015,1016,769,769,769,769,769
</data>
 </layer>
</map>
